icons/scalable/edit-dark.svg

<svg width="24" height="25" viewBox="0 0 24 25" fill="none" xmlns="http://www.w3.org/2000/svg">
<path d="M12 3.25293H5C4.46957 3.25293 3.96086 3.46364 3.58579 3.83872C3.21071 4.21379 3 4.7225 3 5.25293V19.2529C3 19.7834 3.21071 20.2921 3.58579 20.6671C3.96086 21.0422 4.46957 21.2529 5 21.2529H19C19.5304 21.2529 20.0391 21.0422 20.4142 20.6671C20.7893 20.2921 21 19.7834 21 19.2529V12.2529" stroke="white" stroke-width="2" stroke-linecap="round" stroke-linejoin="round"/>
<path d="M18.375 2.87791C18.7728 2.48009 19.3124 2.25659 19.875 2.25659C20.4376 2.25659 20.9771 2.48009 21.375 2.87791C21.7728 3.27574 21.9963 3.8153 21.9963 4.37791C21.9963 4.94052 21.7728 5.48009 21.375 5.87791L12.362 14.8919C12.1245 15.1292 11.8312 15.3028 11.509 15.3969L8.63597 16.2369C8.54992 16.262 8.45871 16.2635 8.37188 16.2413C8.28505 16.219 8.2058 16.1738 8.14242 16.1105C8.07904 16.0471 8.03386 15.9678 8.01162 15.881C7.98937 15.7942 7.99087 15.703 8.01597 15.6169L8.85597 12.7439C8.9505 12.422 9.12451 12.129 9.36197 11.8919L18.375 2.87791Z" stroke="white" stroke-width="2" stroke-linecap="round" stroke-linejoin="round"/>
</svg>

<svg xmlns="http://www.w3.org/2000/svg" width="24" height="25" fill="none">
    <path stroke="#fff" stroke-linecap="round" stroke-linejoin="round" stroke-width="2" d="M12 3.253H5a2 2 0 0 0-2 2v14a2 2 0 0 0 2 2h14a2 2 0 0 0 2-2v-7"/>
    <path stroke="#fff" stroke-linecap="round" stroke-linejoin="round" stroke-width="2" d="M18.375 2.878a2.121 2.121 0 1 1 3 3l-9.013 9.014a2 2 0 0 1-.853.505l-2.873.84a.5.5 0 0 1-.62-.62l.84-2.873a2 2 0 0 1 .506-.852z"/>
</svg>
